X:1
T:Title
%%score { ( 1 3 ) | ( 2 4 ) }
L:1/8
M:6/8
K:Ab
V:1 treble nm="Grand Piano"
V:3 treble 
V:2 bass 
V:4 bass 
V:1
 z3 z2[Q:1/4=100] [CE] | [CE][Ec][Ec] [Ec][EB][EA] | BAF [CE]2 [CE] | [CE][CA][CA] [EA][EB][Ec] | %4
 [EB]3- [EB]2 [DE] | [CE][Ec][Ec] [Ec][EB][EA] | BAF [CE]2 [CE] | [DF][FA][FA] GEB | %8
[M:5/8] [CA]-[CA]- [CA]3 |[M:1/8] [Ec] |[M:3/4] ce ee ce | [CA]4- [CA]c | cc cc BA | %13
 B6[K:bass][K:treble] | ee e[Ec] [EB][EA] | BA F [CE]2 [CE] | [DF][FA] [FA]G EB | %17
[M:5/8] [CA]-[CA]- [CA]3 |] %18
V:2
 z3 z2 [A,,A,] | [A,,A,][A,,A,][A,,A,] [A,,A,][B,,G,][C,A,] | %2
 [D,F,D][D,F,D][D,A,D] [A,,A,]2 [A,,A,] | [A,,A,][A,,A,][A,,A,] [C,A,][B,,G,][A,,A,] | %4
 [E,G,]3- [E,G,]2 [E,G,] | [A,,A,][A,,A,][A,,A,] [A,,A,][B,,G,][C,A,] | %6
 [D,F,D][D,F,D][D,A,D] [A,,A,]2 [A,,A,] | [D,A,][D,D][D,D] [E,B,D][E,G,C][E,G,D] | %8
[M:5/8] [A,,A,]-[A,,A,]- [A,,A,]3 |[M:1/8] [A,,A,] |[M:3/4] [A,CE][A,CE] [A,CE][A,CE] [A,E][A,CE] | %11
 A,,C, E, A,2 [A,E] | [A,E][A,E] [A,E][A,E] [G,B,E][F,B,=D] | [G,E]4- [G,E][A,E] | %14
 [A,CE][A,CE] [A,CE][A,,A,] [B,,G,][C,A,] | [D,F,D][D,F,D] [D,A,D] [A,,A,]2 [A,,A,] | %16
 [D,A,][D,D] [D,D][E,B,D] [E,G,D][E,G,D] |[M:5/8] [A,,A,]-[A,,A,]- [A,,A,]3 |] %18
V:3
 x6 | x6 | x6 | x6 | x6 | x6 | x6 | x6 |[M:5/8] x5 |[M:1/8] x |[M:3/4] x6 | A,4 z2 | x6 | %13
 z[K:bass] E, E, E,2[K:treble] c | x6 | x6 | x6 |[M:5/8] x5 |] %18
V:4
 x6 | x6 | x6 | x6 | x6 | x6 | x6 | x6 |[M:5/8] x5 |[M:1/8] x |[M:3/4] x6 | x6 | x6 | .E,2 z2 z2 | %14
 x6 | x6 | x6 |[M:5/8] x5 |] %18

